src/images/single-assets/USDS.svg

<svg width="50" height="50" viewBox="0 0 50 50" fill="none" xmlns="http://www.w3.org/2000/svg">
<circle cx="25" cy="25" r="25" fill="url(#paint0_radial_3489_8673)"/>
<path d="M15.3975 31.5312H11.8398C12.1303 37.0855 16.777 41.9138 25.0178 41.9138C33.2222 41.9138 38.4498 37.4122 38.4498 31.6038C38.4498 27.4653 35.4367 22.9274 28.2487 20.4588C23.5657 18.8615 21.7868 16.8285 21.7868 14.7956C21.7868 12.9078 23.3115 10.9112 26.4336 10.9112C29.9187 10.9112 33.8394 13.6339 34.1298 17.1189H37.6512C37.2881 11.492 31.8064 7.57129 24.8363 7.57129C17.612 7.57129 12.1666 11.7824 12.1666 17.7361C12.1666 22.1287 15.0708 26.1947 22.0409 28.6269C26.8329 30.188 28.8296 32.1483 28.8296 34.6169C28.8296 36.7951 27.2686 38.6102 23.8924 38.6102C19.6813 38.6102 15.6516 35.6697 15.3975 31.5312ZM26.5062 23.4719C33.7305 25.9042 34.8922 29.5345 34.8922 31.7853C34.8922 34.5443 33.077 36.9766 30.8988 37.5938C31.6612 36.8677 32.242 35.2704 32.242 33.7456C32.242 31.1318 30.4995 27.9735 24.0376 25.7227C16.5955 23.1815 15.6879 19.6964 15.6879 17.6272C15.6879 14.6866 17.5757 12.327 19.9354 11.6009C19.0278 12.6537 18.3744 14.1784 18.3744 15.6305C18.3744 18.3169 20.5888 21.5116 26.5062 23.4719Z" fill="white"/>
<defs>
<radialGradient id="paint0_radial_3489_8673" cx="0" cy="0" r="1" gradientUnits="userSpaceOnUse" gradientTransform="translate(25.0417 57.9537) rotate(-90) scale(80.1336)">
<stop stop-color="#FFD232"/>
<stop offset="1" stop-color="#FF6D6D"/>
</radialGradient>
</defs>
</svg>

<svg xmlns="http://www.w3.org/2000/svg" width="50" height="50" fill="none"><circle cx="25" cy="25" r="25" fill="url(#a)"/><path fill="#fff" d="M15.398 31.531H11.84c.29 5.555 4.937 10.383 13.178 10.383 8.204 0 13.432-4.502 13.432-10.31 0-4.139-3.013-8.677-10.201-11.145-4.683-1.598-6.462-3.63-6.462-5.663 0-1.888 1.524-3.885 4.647-3.885 3.485 0 7.405 2.723 7.696 6.208h3.521c-.363-5.627-5.845-9.548-12.815-9.548-7.224 0-12.67 4.211-12.67 10.165 0 4.393 2.905 8.459 9.875 10.89 4.792 1.562 6.789 3.522 6.789 5.99 0 2.18-1.561 3.994-4.938 3.994-4.21 0-8.24-2.94-8.494-7.079m11.108-8.06c7.224 2.433 8.386 6.064 8.386 8.314 0 2.76-1.815 5.192-3.993 5.809.762-.726 1.343-2.324 1.343-3.848 0-2.614-1.742-5.773-8.204-8.023-7.442-2.541-8.35-6.027-8.35-8.096 0-2.94 1.888-5.3 4.247-6.026-.907 1.053-1.56 2.577-1.56 4.03 0 2.686 2.214 5.88 8.131 7.84"/><defs><radialGradient id="a" cx="0" cy="0" r="1" gradientTransform="rotate(-90 41.498 16.456)scale(80.1336)" gradientUnits="userSpaceOnUse"><stop stop-color="#FFD232"/><stop offset="1" stop-color="#FF6D6D"/></radialGradient></defs></svg>
